images/3233623.svg

<?xml version="1.0" encoding="UTF-8"?>
<svg xmlns="http://www.w3.org/2000/svg" xmlns:xlink="http://www.w3.org/1999/xlink" width="300pt" height="300pt" viewBox="0 0 300 300" version="1.1">
<defs>
<g>
<symbol overflow="visible" id="glyph0-0">
<path style="stroke:none;" d="M 0.453125 1.59375 L 0.453125 -6.34375 L 4.953125 -6.34375 L 4.953125 1.59375 Z M 0.953125 1.09375 L 4.453125 1.09375 L 4.453125 -5.84375 L 0.953125 -5.84375 Z M 0.953125 1.09375 "/>
</symbol>
<symbol overflow="visible" id="glyph0-1">
<path style="stroke:none;" d="M 0.890625 -6.5625 L 2.078125 -6.5625 L 4.984375 -1.078125 L 4.984375 -6.5625 L 5.84375 -6.5625 L 5.84375 0 L 4.65625 0 L 1.75 -5.484375 L 1.75 0 L 0.890625 0 Z M 0.890625 -6.5625 "/>
</symbol>
<symbol overflow="visible" id="glyph0-2">
<path style="stroke:none;" d="M 0.890625 -6.5625 L 1.765625 -6.5625 L 1.765625 -3.875 L 5 -3.875 L 5 -6.5625 L 5.890625 -6.5625 L 5.890625 0 L 5 0 L 5 -3.125 L 1.765625 -3.125 L 1.765625 0 L 0.890625 0 Z M 0.890625 -6.5625 "/>
</symbol>
<symbol overflow="visible" id="glyph0-3">
<path style="stroke:none;" d="M 0.890625 -6.5625 L 4.65625 -6.5625 L 4.65625 -5.8125 L 1.765625 -5.8125 L 1.765625 -3.875 L 4.375 -3.875 L 4.375 -3.140625 L 1.765625 -3.140625 L 1.765625 0 L 0.890625 0 Z M 0.890625 -6.5625 "/>
</symbol>
</g>
</defs>
<g id="surface43517">
<rect x="0" y="0" width="300" height="300" style="fill:rgb(100%,100%,100%);fill-opacity:1;stroke:none;"/>
<path style="fill:none;stroke-width:1.2;stroke-linecap:butt;stroke-linejoin:miter;stroke:rgb(0%,0%,0%);stroke-opacity:1;stroke-miterlimit:10;" d="M 264.75 128.589844 L 241.566406 130.15625 "/>
<path style="fill:none;stroke-width:1.2;stroke-linecap:butt;stroke-linejoin:miter;stroke:rgb(0%,0%,0%);stroke-opacity:1;stroke-miterlimit:10;" d="M 241.566406 130.15625 L 231.335938 151.019531 "/>
<path style="fill:none;stroke-width:1.2;stroke-linecap:butt;stroke-linejoin:miter;stroke:rgb(0%,0%,0%);stroke-opacity:1;stroke-miterlimit:10;" d="M 235.636719 129.835938 L 227.449219 146.523438 "/>
<path style="fill:none;stroke-width:1.2;stroke-linecap:butt;stroke-linejoin:miter;stroke:rgb(0%,0%,100%);stroke-opacity:1;stroke-miterlimit:10;" d="M 228.617188 110.863281 L 235.09375 120.511719 "/>
<path style="fill:none;stroke-width:1.2;stroke-linecap:butt;stroke-linejoin:miter;stroke:rgb(0%,0%,0%);stroke-opacity:1;stroke-miterlimit:10;" d="M 235.09375 120.511719 L 241.566406 130.15625 "/>
<path style="fill:none;stroke-width:1.2;stroke-linecap:butt;stroke-linejoin:miter;stroke:rgb(0%,0%,0%);stroke-opacity:1;stroke-miterlimit:10;" d="M 231.335938 151.019531 L 219.746094 151.800781 "/>
<path style="fill:none;stroke-width:1.2;stroke-linecap:butt;stroke-linejoin:miter;stroke:rgb(0%,0%,100%);stroke-opacity:1;stroke-miterlimit:10;" d="M 219.746094 151.800781 L 208.152344 152.585938 "/>
<path style="fill:none;stroke-width:1.2;stroke-linecap:butt;stroke-linejoin:miter;stroke:rgb(0%,0%,100%);stroke-opacity:1;stroke-miterlimit:10;" d="M 208.152344 152.585938 L 201.679688 142.941406 "/>
<path style="fill:none;stroke-width:1.2;stroke-linecap:butt;stroke-linejoin:miter;stroke:rgb(0%,0%,0%);stroke-opacity:1;stroke-miterlimit:10;" d="M 201.679688 142.941406 L 195.203125 133.292969 "/>
<path style="fill:none;stroke-width:1.2;stroke-linecap:butt;stroke-linejoin:miter;stroke:rgb(0%,0%,100%);stroke-opacity:1;stroke-miterlimit:10;" d="M 211.398438 147.609375 L 206.21875 139.894531 "/>
<path style="fill:none;stroke-width:1.2;stroke-linecap:butt;stroke-linejoin:miter;stroke:rgb(0%,0%,0%);stroke-opacity:1;stroke-miterlimit:10;" d="M 206.21875 139.894531 L 201.039062 132.175781 "/>
<path style=" stroke:none;fill-rule:nonzero;fill:rgb(100%,100%,100%);fill-opacity:1;" d="M 205.152344 147.085938 L 212.152344 147.085938 L 212.152344 158.085938 L 205.152344 158.085938 Z M 205.152344 147.085938 "/>
<g style="fill:rgb(0%,0%,100%);fill-opacity:1;">
  <use xlink:href="#glyph0-1" x="205.152344" y="155.749023"/>
</g>
<path style="fill:none;stroke-width:1.2;stroke-linecap:butt;stroke-linejoin:miter;stroke:rgb(0%,0%,0%);stroke-opacity:1;stroke-miterlimit:10;" d="M 195.203125 133.292969 L 205.4375 112.433594 "/>
<path style="fill:none;stroke-width:1.2;stroke-linecap:butt;stroke-linejoin:miter;stroke:rgb(0%,0%,0%);stroke-opacity:1;stroke-miterlimit:10;" d="M 195.203125 133.292969 L 172.019531 134.863281 "/>
<path style="fill:none;stroke-width:1.2;stroke-linecap:butt;stroke-linejoin:miter;stroke:rgb(0%,0%,0%);stroke-opacity:1;stroke-miterlimit:10;" d="M 205.4375 112.433594 L 217.027344 111.648438 "/>
<path style="fill:none;stroke-width:1.2;stroke-linecap:butt;stroke-linejoin:miter;stroke:rgb(0%,0%,100%);stroke-opacity:1;stroke-miterlimit:10;" d="M 217.027344 111.648438 L 228.617188 110.863281 "/>
<path style="fill:none;stroke-width:1.2;stroke-linecap:butt;stroke-linejoin:miter;stroke:rgb(0%,0%,0%);stroke-opacity:1;stroke-miterlimit:10;" d="M 208.125 117.730469 L 217.394531 117.105469 "/>
<path style="fill:none;stroke-width:1.2;stroke-linecap:butt;stroke-linejoin:miter;stroke:rgb(0%,0%,100%);stroke-opacity:1;stroke-miterlimit:10;" d="M 217.394531 117.105469 L 226.667969 116.476562 "/>
<path style=" stroke:none;fill-rule:nonzero;fill:rgb(100%,100%,100%);fill-opacity:1;" d="M 225.617188 105.363281 L 232.617188 105.363281 L 232.617188 116.363281 L 225.617188 116.363281 Z M 225.617188 105.363281 "/>
<g style="fill:rgb(0%,0%,100%);fill-opacity:1;">
  <use xlink:href="#glyph0-1" x="225.617188" y="114.026367"/>
</g>
<path style="fill:none;stroke-width:1.2;stroke-linecap:butt;stroke-linejoin:miter;stroke:rgb(0%,0%,0%);stroke-opacity:1;stroke-miterlimit:10;" d="M 172.019531 134.863281 L 166.90625 145.292969 "/>
<path style="fill:none;stroke-width:1.2;stroke-linecap:butt;stroke-linejoin:miter;stroke:rgb(0%,0%,100%);stroke-opacity:1;stroke-miterlimit:10;" d="M 166.90625 145.292969 L 161.789062 155.722656 "/>
<path style="fill:none;stroke-width:1.2;stroke-linecap:butt;stroke-linejoin:miter;stroke:rgb(0%,0%,100%);stroke-opacity:1;stroke-miterlimit:10;" d="M 161.789062 155.722656 L 150.199219 156.507812 "/>
<path style="fill:none;stroke-width:1.2;stroke-linecap:butt;stroke-linejoin:miter;stroke:rgb(0%,0%,0%);stroke-opacity:1;stroke-miterlimit:10;" d="M 150.199219 156.507812 L 138.605469 157.292969 "/>
<path style=" stroke:none;fill-rule:nonzero;fill:rgb(100%,100%,100%);fill-opacity:1;" d="M 154.789062 150.222656 L 168.789062 150.222656 L 168.789062 161.222656 L 154.789062 161.222656 Z M 154.789062 150.222656 "/>
<g style="fill:rgb(0%,0%,100%);fill-opacity:1;">
  <use xlink:href="#glyph0-1" x="154.789062" y="158.885742"/>
  <use xlink:href="#glyph0-2" x="161.766602" y="158.885742"/>
</g>
<path style="fill:none;stroke-width:1.2;stroke-linecap:butt;stroke-linejoin:miter;stroke:rgb(0%,0%,0%);stroke-opacity:1;stroke-miterlimit:10;" d="M 138.605469 157.292969 L 132.132812 147.648438 "/>
<path style="fill:none;stroke-width:1.2;stroke-linecap:butt;stroke-linejoin:miter;stroke:rgb(0%,0%,100%);stroke-opacity:1;stroke-miterlimit:10;" d="M 132.132812 147.648438 L 125.65625 138 "/>
<path style="fill:none;stroke-width:1.2;stroke-linecap:butt;stroke-linejoin:miter;stroke:rgb(0%,0%,0%);stroke-opacity:1;stroke-miterlimit:10;" d="M 132.773438 158.410156 L 127.59375 150.695312 "/>
<path style="fill:none;stroke-width:1.2;stroke-linecap:butt;stroke-linejoin:miter;stroke:rgb(0%,0%,100%);stroke-opacity:1;stroke-miterlimit:10;" d="M 127.59375 150.695312 L 122.414062 142.976562 "/>
<path style="fill:none;stroke-width:1.2;stroke-linecap:butt;stroke-linejoin:miter;stroke:rgb(0%,0%,0%);stroke-opacity:1;stroke-miterlimit:10;" d="M 128.375 178.152344 L 138.605469 157.292969 "/>
<path style="fill:none;stroke-width:1.2;stroke-linecap:butt;stroke-linejoin:miter;stroke:rgb(0%,0%,100%);stroke-opacity:1;stroke-miterlimit:10;" d="M 125.65625 138 L 114.066406 138.785156 "/>
<path style="fill:none;stroke-width:1.2;stroke-linecap:butt;stroke-linejoin:miter;stroke:rgb(0%,0%,0%);stroke-opacity:1;stroke-miterlimit:10;" d="M 114.066406 138.785156 L 102.476562 139.570312 "/>
<path style=" stroke:none;fill-rule:nonzero;fill:rgb(100%,100%,100%);fill-opacity:1;" d="M 122.65625 132.5 L 129.65625 132.5 L 129.65625 143.5 L 122.65625 143.5 Z M 122.65625 132.5 "/>
<g style="fill:rgb(0%,0%,100%);fill-opacity:1;">
  <use xlink:href="#glyph0-1" x="122.65625" y="141.163086"/>
</g>
<path style="fill:none;stroke-width:1.2;stroke-linecap:butt;stroke-linejoin:miter;stroke:rgb(0%,0%,0%);stroke-opacity:1;stroke-miterlimit:10;" d="M 102.476562 139.570312 L 97.359375 150 "/>
<path style="fill:none;stroke-width:1.2;stroke-linecap:butt;stroke-linejoin:miter;stroke:rgb(0%,0%,100%);stroke-opacity:1;stroke-miterlimit:10;" d="M 97.359375 150 L 92.242188 160.429688 "/>
<path style="fill:none;stroke-width:1.2;stroke-linecap:butt;stroke-linejoin:miter;stroke:rgb(0%,0%,0%);stroke-opacity:1;stroke-miterlimit:10;" d="M 106.359375 144.0625 L 102.265625 152.40625 "/>
<path style="fill:none;stroke-width:1.2;stroke-linecap:butt;stroke-linejoin:miter;stroke:rgb(0%,0%,100%);stroke-opacity:1;stroke-miterlimit:10;" d="M 102.265625 152.40625 L 98.175781 160.75 "/>
<path style="fill:none;stroke-width:1.2;stroke-linecap:butt;stroke-linejoin:miter;stroke:rgb(0%,0%,0%);stroke-opacity:1;stroke-miterlimit:10;" d="M 102.476562 139.570312 L 89.523438 120.277344 "/>
<path style="fill:none;stroke-width:1.2;stroke-linecap:butt;stroke-linejoin:miter;stroke:rgb(0%,0%,100%);stroke-opacity:1;stroke-miterlimit:10;" d="M 92.242188 160.429688 L 98.71875 170.078125 "/>
<path style="fill:none;stroke-width:1.2;stroke-linecap:butt;stroke-linejoin:miter;stroke:rgb(0%,0%,0%);stroke-opacity:1;stroke-miterlimit:10;" d="M 98.71875 170.078125 L 105.191406 179.722656 "/>
<path style=" stroke:none;fill-rule:nonzero;fill:rgb(100%,100%,100%);fill-opacity:1;" d="M 89.242188 154.929688 L 96.242188 154.929688 L 96.242188 165.929688 L 89.242188 165.929688 Z M 89.242188 154.929688 "/>
<g style="fill:rgb(0%,0%,100%);fill-opacity:1;">
  <use xlink:href="#glyph0-1" x="89.242188" y="163.592773"/>
</g>
<path style="fill:none;stroke-width:1.2;stroke-linecap:butt;stroke-linejoin:miter;stroke:rgb(0%,0%,0%);stroke-opacity:1;stroke-miterlimit:10;" d="M 105.191406 179.722656 L 94.960938 200.582031 "/>
<path style="fill:none;stroke-width:1.2;stroke-linecap:butt;stroke-linejoin:miter;stroke:rgb(0%,0%,0%);stroke-opacity:1;stroke-miterlimit:10;" d="M 109.078125 184.214844 L 100.890625 200.90625 "/>
<path style="fill:none;stroke-width:1.2;stroke-linecap:butt;stroke-linejoin:miter;stroke:rgb(0%,0%,0%);stroke-opacity:1;stroke-miterlimit:10;" d="M 128.375 178.152344 L 105.191406 179.722656 "/>
<path style="fill:none;stroke-width:1.2;stroke-linecap:butt;stroke-linejoin:miter;stroke:rgb(0%,0%,0%);stroke-opacity:1;stroke-miterlimit:10;" d="M 94.960938 200.582031 L 107.910156 219.875 "/>
<path style="fill:none;stroke-width:1.2;stroke-linecap:butt;stroke-linejoin:miter;stroke:rgb(0%,0%,0%);stroke-opacity:1;stroke-miterlimit:10;" d="M 107.910156 219.875 L 131.089844 218.304688 "/>
<path style="fill:none;stroke-width:1.2;stroke-linecap:butt;stroke-linejoin:miter;stroke:rgb(0%,0%,0%);stroke-opacity:1;stroke-miterlimit:10;" d="M 109.859375 214.261719 L 128.402344 213.007812 "/>
<path style="fill:none;stroke-width:1.2;stroke-linecap:butt;stroke-linejoin:miter;stroke:rgb(0%,0%,0%);stroke-opacity:1;stroke-miterlimit:10;" d="M 131.089844 218.304688 L 141.324219 197.445312 "/>
<path style="fill:none;stroke-width:1.2;stroke-linecap:butt;stroke-linejoin:miter;stroke:rgb(0%,0%,0%);stroke-opacity:1;stroke-miterlimit:10;" d="M 141.324219 197.445312 L 128.375 178.152344 "/>
<path style="fill:none;stroke-width:1.2;stroke-linecap:butt;stroke-linejoin:miter;stroke:rgb(0%,0%,0%);stroke-opacity:1;stroke-miterlimit:10;" d="M 135.488281 198.5625 L 125.128906 183.128906 "/>
<path style="fill:none;stroke-width:1.2;stroke-linecap:butt;stroke-linejoin:miter;stroke:rgb(0%,0%,0%);stroke-opacity:1;stroke-miterlimit:10;" d="M 89.523438 120.277344 L 99.757812 99.417969 "/>
<path style="fill:none;stroke-width:1.2;stroke-linecap:butt;stroke-linejoin:miter;stroke:rgb(0%,0%,0%);stroke-opacity:1;stroke-miterlimit:10;" d="M 85.640625 115.785156 L 93.824219 99.09375 "/>
<path style="fill:none;stroke-width:1.2;stroke-linecap:butt;stroke-linejoin:miter;stroke:rgb(0%,0%,0%);stroke-opacity:1;stroke-miterlimit:10;" d="M 66.34375 121.847656 L 89.523438 120.277344 "/>
<path style="fill:none;stroke-width:1.2;stroke-linecap:butt;stroke-linejoin:miter;stroke:rgb(0%,0%,0%);stroke-opacity:1;stroke-miterlimit:10;" d="M 99.757812 99.417969 L 86.808594 80.125 "/>
<path style="fill:none;stroke-width:1.2;stroke-linecap:butt;stroke-linejoin:miter;stroke:rgb(0%,0%,0%);stroke-opacity:1;stroke-miterlimit:10;" d="M 86.808594 80.125 L 63.625 81.695312 "/>
<path style="fill:none;stroke-width:1.2;stroke-linecap:butt;stroke-linejoin:miter;stroke:rgb(0%,0%,0%);stroke-opacity:1;stroke-miterlimit:10;" d="M 84.859375 85.738281 L 66.3125 86.992188 "/>
<path style="fill:none;stroke-width:1.2;stroke-linecap:butt;stroke-linejoin:miter;stroke:rgb(0%,0%,0%);stroke-opacity:1;stroke-miterlimit:10;" d="M 63.625 81.695312 L 53.394531 102.554688 "/>
<path style="fill:none;stroke-width:1.2;stroke-linecap:butt;stroke-linejoin:miter;stroke:rgb(0%,0%,0%);stroke-opacity:1;stroke-miterlimit:10;" d="M 53.394531 102.554688 L 66.34375 121.847656 "/>
<path style="fill:none;stroke-width:1.2;stroke-linecap:butt;stroke-linejoin:miter;stroke:rgb(0%,0%,0%);stroke-opacity:1;stroke-miterlimit:10;" d="M 59.226562 101.4375 L 69.585938 116.871094 "/>
<path style="fill:none;stroke-width:1.2;stroke-linecap:butt;stroke-linejoin:miter;stroke:rgb(0%,0%,0%);stroke-opacity:1;stroke-miterlimit:10;" d="M 66.34375 121.847656 L 56.109375 142.707031 "/>
<path style="fill:none;stroke-width:1.2;stroke-linecap:butt;stroke-linejoin:miter;stroke:rgb(0%,0%,0%);stroke-opacity:1;stroke-miterlimit:10;" d="M 56.109375 142.707031 L 50.996094 153.136719 "/>
<path style="fill:none;stroke-width:1.2;stroke-linecap:butt;stroke-linejoin:miter;stroke:rgb(20%,80%,80%);stroke-opacity:1;stroke-miterlimit:10;" d="M 50.996094 153.136719 L 45.878906 163.566406 "/>
<path style="fill:none;stroke-width:1.2;stroke-linecap:butt;stroke-linejoin:miter;stroke:rgb(0%,0%,0%);stroke-opacity:1;stroke-miterlimit:10;" d="M 56.109375 142.707031 L 45.679688 137.589844 "/>
<path style="fill:none;stroke-width:1.2;stroke-linecap:butt;stroke-linejoin:miter;stroke:rgb(20%,80%,80%);stroke-opacity:1;stroke-miterlimit:10;" d="M 45.679688 137.589844 L 35.25 132.476562 "/>
<path style="fill:none;stroke-width:1.2;stroke-linecap:butt;stroke-linejoin:miter;stroke:rgb(0%,0%,0%);stroke-opacity:1;stroke-miterlimit:10;" d="M 56.109375 142.707031 L 66.542969 147.824219 "/>
<path style="fill:none;stroke-width:1.2;stroke-linecap:butt;stroke-linejoin:miter;stroke:rgb(20%,80%,80%);stroke-opacity:1;stroke-miterlimit:10;" d="M 66.542969 147.824219 L 76.972656 152.941406 "/>
<path style=" stroke:none;fill-rule:nonzero;fill:rgb(100%,100%,100%);fill-opacity:1;" d="M 39.878906 158.066406 L 45.878906 158.066406 L 45.878906 169.066406 L 39.878906 169.066406 Z M 39.878906 158.066406 "/>
<g style="fill:rgb(20%,80%,80%);fill-opacity:1;">
  <use xlink:href="#glyph0-3" x="39.878906" y="166.729492"/>
</g>
<path style=" stroke:none;fill-rule:nonzero;fill:rgb(100%,100%,100%);fill-opacity:1;" d="M 29.25 126.976562 L 35.25 126.976562 L 35.25 137.976562 L 29.25 137.976562 Z M 29.25 126.976562 "/>
<g style="fill:rgb(20%,80%,80%);fill-opacity:1;">
  <use xlink:href="#glyph0-3" x="29.25" y="135.639648"/>
</g>
<path style=" stroke:none;fill-rule:nonzero;fill:rgb(100%,100%,100%);fill-opacity:1;" d="M 73.972656 147.441406 L 79.972656 147.441406 L 79.972656 158.441406 L 73.972656 158.441406 Z M 73.972656 147.441406 "/>
<g style="fill:rgb(20%,80%,80%);fill-opacity:1;">
  <use xlink:href="#glyph0-3" x="73.972656" y="156.104492"/>
</g>
</g>
</svg>

<svg xmlns="http://www.w3.org/2000/svg" xmlns:xlink="http://www.w3.org/1999/xlink" width="300pt" height="300pt" viewBox="0 0 300 300"><defs><symbol overflow="visible"><path d="M.453 1.594v-7.938h4.5v7.938zm.5-.5h3.5v-6.938h-3.5zm0 0"/></symbol><symbol overflow="visible" id="a"><path d="M.89-6.563H2.08l2.906 5.485v-5.484h.86V0H4.656L1.75-5.484V0H.89zm0 0"/></symbol><symbol overflow="visible" id="b"><path d="M.89-6.563h.876v2.688H5v-2.688h.89V0H5v-3.125H1.766V0H.89zm0 0"/></symbol><symbol overflow="visible" id="c"><path d="M.89-6.563h3.766v.75h-2.89v1.938h2.61v.734h-2.61V0H.89zm0 0"/></symbol></defs><g><path fill="#fff" d="M0 0h300v300H0z"/><path d="M264.75 128.59l-23.184 1.566M241.566 130.156l-10.23 20.864M235.637 129.836l-8.188 16.687" stroke-width="1.2" stroke="#000" stroke-miterlimit="10" fill="none"/><path d="M228.617 110.863l6.477 9.65" stroke-width="1.2" stroke="#00f" stroke-miterlimit="10" fill="none"/><path d="M235.094 120.512l6.472 9.644M231.336 151.02l-11.59.78" stroke-width="1.2" stroke="#000" stroke-miterlimit="10" fill="none"/><path d="M219.746 151.8l-11.594.786M208.152 152.586l-6.472-9.645" stroke-width="1.2" stroke="#00f" stroke-miterlimit="10" fill="none"/><path d="M201.68 142.94l-6.477-9.647" stroke-width="1.2" stroke="#000" stroke-miterlimit="10" fill="none"/><path d="M211.398 147.61l-5.18-7.715" stroke-width="1.2" stroke="#00f" stroke-miterlimit="10" fill="none"/><path d="M206.22 139.895l-5.18-7.72" stroke-width="1.2" stroke="#000" stroke-miterlimit="10" fill="none"/><path d="M205.152 147.086h7v11h-7zm0 0" fill="#fff"/><use xlink:href="#a" x="205.152" y="155.749" fill="#00f"/><path d="M195.203 133.293l10.234-20.86M195.203 133.293l-23.183 1.57M205.438 112.434l11.59-.786" stroke-width="1.2" stroke="#000" stroke-miterlimit="10" fill="none"/><path d="M217.027 111.648l11.59-.785" stroke-width="1.2" stroke="#00f" stroke-miterlimit="10" fill="none"/><path d="M208.125 117.73l9.27-.625" stroke-width="1.2" stroke="#000" stroke-miterlimit="10" fill="none"/><path d="M217.395 117.105l9.273-.628" stroke-width="1.2" stroke="#00f" stroke-miterlimit="10" fill="none"/><path d="M225.617 105.363h7v11h-7zm0 0" fill="#fff"/><use xlink:href="#a" x="225.617" y="114.026" fill="#00f"/><path d="M172.02 134.863l-5.114 10.43" stroke-width="1.2" stroke="#000" stroke-miterlimit="10" fill="none"/><path d="M166.906 145.293l-5.117 10.43M161.79 155.723l-11.59.785" stroke-width="1.2" stroke="#00f" stroke-miterlimit="10" fill="none"/><path d="M150.2 156.508l-11.595.785" stroke-width="1.2" stroke="#000" stroke-miterlimit="10" fill="none"/><path d="M154.79 150.223h14v11h-14zm0 0" fill="#fff"/><g fill="#00f"><use xlink:href="#a" x="154.789" y="158.886"/><use xlink:href="#b" x="161.767" y="158.886"/></g><path d="M138.605 157.293l-6.472-9.645" stroke-width="1.2" stroke="#000" stroke-miterlimit="10" fill="none"/><path d="M132.133 147.648L125.656 138" stroke-width="1.2" stroke="#00f" stroke-miterlimit="10" fill="none"/><path d="M132.773 158.41l-5.18-7.715" stroke-width="1.2" stroke="#000" stroke-miterlimit="10" fill="none"/><path d="M127.594 150.695l-5.18-7.718" stroke-width="1.2" stroke="#00f" stroke-miterlimit="10" fill="none"/><path d="M128.375 178.152l10.23-20.86" stroke-width="1.2" stroke="#000" stroke-miterlimit="10" fill="none"/><path d="M125.656 138l-11.59.785" stroke-width="1.2" stroke="#00f" stroke-miterlimit="10" fill="none"/><path d="M114.066 138.785l-11.59.785" stroke-width="1.2" stroke="#000" stroke-miterlimit="10" fill="none"/><path d="M122.656 132.5h7v11h-7zm0 0" fill="#fff"/><use xlink:href="#a" x="122.656" y="141.163" fill="#00f"/><path d="M102.477 139.57L97.36 150" stroke-width="1.2" stroke="#000" stroke-miterlimit="10" fill="none"/><path d="M97.36 150l-5.118 10.43" stroke-width="1.2" stroke="#00f" stroke-miterlimit="10" fill="none"/><path d="M106.36 144.063l-4.094 8.343" stroke-width="1.2" stroke="#000" stroke-miterlimit="10" fill="none"/><path d="M102.266 152.406l-4.09 8.344" stroke-width="1.2" stroke="#00f" stroke-miterlimit="10" fill="none"/><path d="M102.477 139.57l-12.954-19.293" stroke-width="1.2" stroke="#000" stroke-miterlimit="10" fill="none"/><path d="M92.242 160.43l6.477 9.648" stroke-width="1.2" stroke="#00f" stroke-miterlimit="10" fill="none"/><path d="M98.72 170.078l6.47 9.645" stroke-width="1.2" stroke="#000" stroke-miterlimit="10" fill="none"/><path d="M89.242 154.93h7v11h-7zm0 0" fill="#fff"/><use xlink:href="#a" x="89.242" y="163.593" fill="#00f"/><path d="M105.19 179.723l-10.23 20.86M109.078 184.215l-8.187 16.69M128.375 178.152l-23.184 1.57M94.96 200.582l12.95 19.293M107.91 219.875l23.18-1.57M109.86 214.262l18.542-1.254M131.09 218.305l10.234-20.86M141.324 197.445l-12.95-19.293M135.488 198.563l-10.36-15.434M89.523 120.277l10.235-20.86M85.64 115.785l8.184-16.69M66.344 121.848l23.18-1.57M99.758 99.418l-12.95-19.293M86.81 80.125l-23.185 1.57M84.86 85.738l-18.547 1.254M63.625 81.695l-10.23 20.86M53.395 102.555l12.95 19.293M59.227 101.438l10.36 15.433M66.344 121.848l-10.235 20.86M56.11 142.707l-5.114 10.43" stroke-width="1.2" stroke="#000" stroke-miterlimit="10" fill="none"/><path d="M50.996 153.137l-5.117 10.43" stroke-width="1.2" stroke="#3cc" stroke-miterlimit="10" fill="none"/><path d="M56.11 142.707l-10.43-5.117" stroke-width="1.2" stroke="#000" stroke-miterlimit="10" fill="none"/><path d="M45.68 137.59l-10.43-5.113" stroke-width="1.2" stroke="#3cc" stroke-miterlimit="10" fill="none"/><path d="M56.11 142.707l10.433 5.117" stroke-width="1.2" stroke="#000" stroke-miterlimit="10" fill="none"/><path d="M66.543 147.824l10.43 5.117" stroke-width="1.2" stroke="#3cc" stroke-miterlimit="10" fill="none"/><path d="M39.88 158.066h6v11h-6zm0 0" fill="#fff"/><use xlink:href="#c" x="39.879" y="166.729" fill="#3cc"/><path d="M29.25 126.977h6v11h-6zm0 0" fill="#fff"/><use xlink:href="#c" x="29.25" y="135.64" fill="#3cc"/><path d="M73.973 147.44h6v11h-6zm0 0" fill="#fff"/><use xlink:href="#c" x="73.973" y="156.104" fill="#3cc"/></g></svg>
